build/img/sprite/icon-maindirection-vip.svg

<svg width="85" height="85" viewBox="0 0 85 85" fill="none" xmlns="http://www.w3.org/2000/svg">
<circle cx="42.5" cy="42.5" r="42" stroke="white"/>
<path d="M46.5801 49.1804C46.5801 54.1476 50.6068 58.1744 55.574 58.1744C60.5409 58.1744 64.5677 54.1476 64.5677 49.1804C64.5677 44.2135 60.5409 40.1868 55.574 40.1868C50.609 40.1922 46.5855 44.2157 46.5801 49.1804ZM55.574 41.9853C59.5478 41.9853 62.7691 45.2066 62.7691 49.1804C62.7691 53.1542 59.5478 56.3754 55.574 56.3754C51.6003 56.3754 48.379 53.1542 48.379 49.1804C48.3834 45.2088 51.6021 41.9897 55.574 41.9853Z" fill="white"/>
<path d="M50.4348 67.1682H60.714V68.9668H50.4348V67.1682Z" fill="white"/>
<path d="M46.5801 63.5704H64.568V65.3694H46.5801V63.5704Z" fill="white"/>
<path d="M26.7935 63.5704H28.5924V65.3694H26.7935V63.5704Z" fill="white"/>
<path d="M21.3975 65.3694H23.196V67.1683H21.3975V65.3694Z" fill="white"/>
<path d="M26.8834 58.5095C31.5796 50.3305 34.5262 41.265 35.5363 31.8879L43.9008 40.2026C44.0681 40.3692 44.2941 40.4631 44.5303 40.4642C44.5789 40.4646 44.6279 40.4606 44.6758 40.4526C44.961 40.4062 45.2063 40.2255 45.3351 39.9672C47.0306 36.583 46.3666 32.4931 43.6874 29.8194L42.952 29.0835H49.278C49.7747 29.0839 50.1779 28.6815 50.1779 28.1848C50.1782 28.0875 50.1623 27.991 50.1318 27.8992C48.9373 24.3072 45.576 21.8849 41.7905 21.8885H40.6215L45.113 17.3708C45.4635 17.0189 45.4621 16.4496 45.1101 16.0991C45.0419 16.0312 44.9635 15.9746 44.8775 15.9318C41.4919 14.2345 37.3999 14.8981 34.7243 17.5787L33.8655 18.4376C33.5854 18.7195 33.3252 19.0199 33.0857 19.337C32.8492 19.0199 32.5908 18.7195 32.3129 18.4376L31.4541 17.5787C28.7807 14.8999 24.6908 14.2363 21.3074 15.9318C20.8629 16.1539 20.6826 16.6941 20.9046 17.1383C20.9474 17.2242 21.004 17.3026 21.0719 17.3708L25.5685 21.8885H24.3879C20.6024 21.8849 17.2407 24.3072 16.0466 27.8992C15.8892 28.3702 16.1435 28.8796 16.6148 29.0371C16.7066 29.0679 16.8031 29.0835 16.9004 29.0835H23.2202L22.4848 29.8194C19.8056 32.4931 19.1416 36.583 20.8368 39.9672C20.9659 40.2255 21.2112 40.4062 21.4961 40.4526C21.5443 40.4606 21.5929 40.4646 21.6419 40.4642C21.8796 40.4642 22.1074 40.3703 22.2758 40.2026L30.0648 32.4597C29.1004 41.0782 25.8544 49.2833 20.6615 56.2287C19.4526 55.9112 18.2269 55.6612 16.9904 55.4806L16.4283 55.424L16.2484 57.2145L16.7727 57.2657C17.6721 57.3945 18.5658 57.5763 19.4547 57.782C19.2748 58.0077 19.0948 58.237 18.9087 58.4594L20.2882 59.6133C27.1998 51.3957 31.3202 41.1939 32.0542 30.4812L33.0894 29.4525L33.8644 30.2232C32.9188 41.6797 28.9864 52.6885 22.4594 62.1513L23.9325 63.1821C24.6397 62.1727 25.3142 61.1252 25.968 60.0577C30.1751 62.07 33.8898 64.9803 36.8505 68.5836L38.2416 67.444C36.491 65.3156 34.4852 63.4103 32.269 61.7718H69.964V59.9728H29.6043C28.7227 59.4405 27.8127 58.9583 26.8834 58.5095ZM44.2001 37.9621L34.6975 28.5142C37.1281 27.7886 39.7608 28.4471 41.5634 30.2319L42.4222 31.0911C44.2215 32.8871 44.9022 35.5188 44.2001 37.9621ZM47.9058 27.285H40.4589C38.7246 26.4595 36.7678 26.2258 34.888 26.6202C36.1967 24.7799 38.3149 23.6871 40.5732 23.6874H41.7873C44.3297 23.6834 46.6732 25.0615 47.9058 27.285ZM35.1343 19.7093L35.9935 18.8505C37.791 17.0508 40.4237 16.3698 42.8682 17.0722L37.5367 22.4353C35.8063 23.0721 34.3208 24.2382 33.2908 25.7676C32.8724 23.5673 33.5625 21.3018 35.1372 19.7093H35.1343ZM30.1798 18.8505L31.0386 19.7093C31.4392 20.1182 31.7868 20.5761 32.0731 21.0718C31.6656 22.0191 31.433 23.0318 31.3859 24.0615C30.5786 23.3562 29.6486 22.8054 28.6428 22.4353L23.3102 17.0722C25.7539 16.3701 28.3859 17.0512 30.1823 18.8505H30.1798ZM24.385 23.6874H25.5994C27.8591 23.6853 29.9802 24.7778 31.2904 26.6192C29.4117 26.2262 27.4556 26.4599 25.7224 27.285H18.2726C19.5048 25.0626 21.8466 23.6849 24.3879 23.6874H24.385ZM21.9783 37.9621C21.2762 35.5188 21.9572 32.8871 23.7565 31.0911L24.6154 30.2319C25.9092 28.9413 27.6639 28.2189 29.4919 28.2247C30.1664 28.2251 30.8373 28.3212 31.4849 28.5106L21.9783 37.9621Z" fill="white"/>
</svg>

<svg width="85" height="85" fill="none" xmlns="http://www.w3.org/2000/svg"><circle cx="42.5" cy="42.5" r="42" stroke="#fff"/><path d="M46.58 49.18a8.994 8.994 0 108.994-8.993 9.004 9.004 0 00-8.994 8.993zm8.994-7.195a7.195 7.195 0 11-7.195 7.195 7.203 7.203 0 017.195-7.195zm-5.139 25.183h10.279v1.799h-10.28v-1.799zM46.58 63.57h17.988v1.8H46.58v-1.8zm-19.786 0h1.798v1.8h-1.798v-1.8zm-5.396 1.8h1.798v1.798h-1.799V65.37z" fill="#fff"/><path d="M26.883 58.51a68.116 68.116 0 008.653-26.622l8.365 8.315a.898.898 0 001.434-.236 8.78 8.78 0 00-1.648-10.148l-.735-.735h6.326a.899.899 0 00.854-1.185 8.781 8.781 0 00-8.341-6.01h-1.17l4.492-4.518a.9.9 0 00-.236-1.44 8.783 8.783 0 00-10.153 1.648l-.858.859a8.8 8.8 0 00-.78.899 8.636 8.636 0 00-.773-.9l-.859-.858a8.78 8.78 0 00-10.147-1.647.9.9 0 00-.235 1.439l4.497 4.518h-1.181a8.781 8.781 0 00-8.341 6.01.9.9 0 00.853 1.184h6.32l-.735.736a8.78 8.78 0 00-1.648 10.148.899.899 0 001.439.236l7.789-7.743a48.747 48.747 0 01-9.404 23.769 33.53 33.53 0 00-3.67-.748l-.563-.057-.18 1.79.525.052c.9.129 1.793.31 2.682.516-.18.226-.36.455-.546.677l1.38 1.154a50.636 50.636 0 0011.765-29.132l1.035-1.029.775.771A65.76 65.76 0 0122.46 62.151l1.474 1.031a60.636 60.636 0 002.035-3.124 31.9 31.9 0 0110.882 8.526l1.392-1.14a33.588 33.588 0 00-5.973-5.672h37.695v-1.8h-40.36a33.113 33.113 0 00-2.72-1.462zM44.2 37.962l-9.503-9.448a6.938 6.938 0 016.866 1.718l.86.86a6.983 6.983 0 011.777 6.87zm3.706-10.677h-7.447a8.77 8.77 0 00-5.571-.665 6.975 6.975 0 015.685-2.933h1.214a6.983 6.983 0 016.119 3.598zm-12.772-7.576l.86-.858a6.988 6.988 0 016.874-1.779l-5.331 5.363a8.771 8.771 0 00-4.246 3.333 6.807 6.807 0 011.846-6.059h-.003zm-4.954-.858l.859.858c.4.41.748.867 1.034 1.363a8.554 8.554 0 00-.687 2.99 8.774 8.774 0 00-2.743-1.627l-5.333-5.363a6.985 6.985 0 016.872 1.779h-.002zm-5.795 4.836h1.214a6.977 6.977 0 015.691 2.932 8.774 8.774 0 00-5.568.666h-7.45a6.984 6.984 0 016.116-3.598h-.003zm-2.407 14.275a6.983 6.983 0 011.778-6.87l.86-.86a6.874 6.874 0 014.876-2.007c.674 0 1.345.096 1.993.286l-9.507 9.451z" fill="#fff"/></svg>
